X:97
T:Hoop and Gird Her
Z:Jack Campin, http://www.campin.me.uk/
S:Northumbrian Minstrelsy
M:6/8
L:1/8
K:G
GBG GB/c/d   |GBG d2B|GBG GB/c/d      |AB/A/B c2A      | 
GAG GB/c/d   |BGB gdB|cec d/c/B/c/d/B/|cAB    c2A     :|
gdB de/f/g/f/|gdB d2B|gdB de/f/g/e/   |cAB    cd/c/B/A/|
gdB de/f/g/e/|gde dcB|cec d/c/B/c/d/B/|cAB    c2A     :|

